!!!OTL: VON ALLEN DEN MAEDCHEN
!!!ARE: Europa, Mitteleuropa, Deutschland
!!!SCT: B0420
!!!YEM: Copyright 1995, estate of Helmut Schaffrath.
**kern
*ICvox
*Ivox
*M6/8
*k[f#c#]
*D:
{8A
=1
8.f#
16f#
8f#
8.b
16a
8a
=2
8a
8g
8e
8c#
8r}
{8A
=3
8f#
8f#
8f#
8.g
16a
8b
=4
4.d
8c#
8r}
{8A
=5
8.f#
16f#
8f#
8.b
16a
8a
=6
8a
8g
8e
8c#
8r}
{8a
=7
8dd
8a
8f#
8a
8g
8c#
=8
4.e
8d
8r}
{8f#
=9
8.e
16e
8e
8e
8f#
8g#
=10
8.a
16a
8a
8cc#
8b}
{8a
=11
8.b
16b
8b
8dd
8b
8g#
=12
4.b
8a
8r}
{8g
=13
8f#
8f#
8f#
8.b
16a
8a
=14
8a
8g
8e
8c#
8r}
{8a
=15
8dd
8a
8f#
8a
8g
8c#
=16
4.e
8d
8r}
==
!!!AGN: Liebes - Lied, Liebes - Lust, Staende - Lied
!!!ONB: ESAC (Essen Associative Code) Database: BOEHME
!!!AMT: compound duple
!!!AIN: vox
!!!EED: Helmut Schaffrath
!!!EEV: 1.0
*-
